austria/municipalities/70712.svg

<?xml version="1.0" encoding="UTF-8"?>
<!DOCTYPE svg PUBLIC "-//W3C//DTD SVG 1.1//EN" "http://www.w3.org/Graphics/SVG/1.1/DTD/svg11.dtd">
<svg xmlns="http://www.w3.org/2000/svg" version="1.1" width="166px" height="192px" style="shape-rendering:geometricPrecision; text-rendering:geometricPrecision; image-rendering:optimizeQuality; fill-rule:evenodd; clip-rule:evenodd" xmlns:xlink="http://www.w3.org/1999/xlink">
<g><path style="opacity:1" fill="#030201" d="M -0.5,-0.5 C 54.8333,-0.5 110.167,-0.5 165.5,-0.5C 165.5,39.8333 165.5,80.1667 165.5,120.5C 156.489,160.511 131.823,184.178 91.5,191.5C 84.8333,191.5 78.1667,191.5 71.5,191.5C 30.4543,182.789 6.45426,157.789 -0.5,116.5C -0.5,77.5 -0.5,38.5 -0.5,-0.5 Z"/></g>
<g><path style="opacity:1" fill="#3b2e18" d="M 3.5,3.5 C 30.069,2.17263 56.7356,2.17263 83.5,3.5C 83.5,4.16667 83.5,4.83333 83.5,5.5C 82.8333,5.5 82.1667,5.5 81.5,5.5C 55.8548,3.50905 29.8548,2.84238 3.5,3.5 Z"/></g>
<g><path style="opacity:1" fill="#e7a51c" d="M 3.5,3.5 C 29.8548,2.84238 55.8548,3.50905 81.5,5.5C 70.2387,41.4519 59.072,77.4519 48,113.5C 44.3333,104.5 40.6667,95.5 37,86.5C 32.8138,95.3823 28.8138,104.382 25,113.5C 20.9917,104.133 16.9917,94.7992 13,85.5C 10,92.5 7,99.5 4,106.5C 3.50002,72.1683 3.33335,37.835 3.5,3.5 Z"/></g>
<g><path style="opacity:1" fill="#e7a51c" d="M 83.5,3.5 C 109.5,3.5 135.5,3.5 161.5,3.5C 161.667,37.835 161.5,72.1683 161,106.5C 158.275,99.3839 155.275,92.3839 152,85.5C 147.992,94.8675 143.992,104.201 140,113.5C 136.162,104.491 132.328,95.4913 128.5,86.5C 124.839,95.1423 121.173,103.809 117.5,112.5C 108.812,80.7437 99.9789,49.077 91,17.5C 90,19.5 89,21.5 88,23.5C 86.4967,17.4866 84.9967,11.4866 83.5,5.5C 83.5,4.83333 83.5,4.16667 83.5,3.5 Z"/></g>
<g><path style="opacity:1" fill="#fdfdfd" d="M -0.5,116.5 C 6.45426,157.789 30.4543,182.789 71.5,191.5C 47.5,191.5 23.5,191.5 -0.5,191.5C -0.5,166.5 -0.5,141.5 -0.5,116.5 Z"/></g>
<g><path style="opacity:1" fill="#fdfdfd" d="M 165.5,120.5 C 165.5,144.167 165.5,167.833 165.5,191.5C 140.833,191.5 116.167,191.5 91.5,191.5C 131.823,184.178 156.489,160.511 165.5,120.5 Z"/></g>
</svg>

<svg xmlns="http://www.w3.org/2000/svg" width="166" height="192" style="shape-rendering:geometricPrecision;text-rendering:geometricPrecision;image-rendering:optimizeQuality;fill-rule:evenodd;clip-rule:evenodd"><path style="opacity:1" fill="#030201" d="M-.5-.5h166v121c-9.011 40.011-33.677 63.678-74 71h-20c-41.046-8.711-65.046-33.711-72-75V-.5z"/><path style="opacity:1" fill="#3b2e18" d="M3.5 3.5a804.09 804.09 0 0 1 80 0v2h-2c-25.645-1.991-51.645-2.658-78-2z"/><path style="opacity:1" fill="#e7a51c" d="M3.5 3.5c26.355-.658 52.355.009 78 2a20363.353 20363.353 0 0 0-33.5 108l-11-27a667.465 667.465 0 0 0-12 27c-4.008-9.367-8.008-18.7-12-28l-9 21c-.5-34.332-.667-68.665-.5-103zM83.5 3.5h78c.167 34.335 0 68.668-.5 103a291.57 291.57 0 0 0-9-21c-4.008 9.368-8.008 18.701-12 28-3.838-9.009-7.672-18.009-11.5-27-3.661 8.642-7.327 17.309-11 26a9874.072 9874.072 0 0 0-26.5-95l-3 6-4.5-18v-2z"/><path style="opacity:1" fill="#fdfdfd" d="M-.5 116.5c6.954 41.289 30.954 66.289 72 75h-72v-75zM165.5 120.5v71h-74c40.323-7.322 64.989-30.989 74-71z"/></svg>
